bicons/16x16/status/temporarily-not-available-clock.svg

<?xml version="1.0" encoding="UTF-8" standalone="no"?>
<!-- Created with Inkscape (http://www.inkscape.org/) -->

<svg
   xmlns:dc="http://purl.org/dc/elements/1.1/"
   xmlns:cc="http://creativecommons.org/ns#"
   xmlns:rdf="http://www.w3.org/1999/02/22-rdf-syntax-ns#"
   xmlns:svg="http://www.w3.org/2000/svg"
   xmlns="http://www.w3.org/2000/svg"
   xmlns:sodipodi="http://sodipodi.sourceforge.net/DTD/sodipodi-0.dtd"
   xmlns:inkscape="http://www.inkscape.org/namespaces/inkscape"
   width="210mm"
   height="297mm"
   viewBox="0 0 744.09448819 1052.3622047"
   id="svg2"
   version="1.1"
   inkscape:version="0.91 r13725"
   inkscape:export-xdpi="3.5985749"
   inkscape:export-ydpi="3.5985749"
   sodipodi:docname="temporarily-not-available-clock.svg"
   inkscape:export-filename="C:\Users\johannes\Documents\Arbeit\RRZE\github3\bicons\16x16\status\temporarily-not-available-clock.png">
  <defs
     id="defs4">
    <linearGradient
       id="linearGradient2224">
      <stop
         id="stop2226"
         offset="0"
         style="stop-color:#7c7c7c;stop-opacity:1;" />
      <stop
         id="stop2228"
         offset="1"
         style="stop-color:#b8b8b8;stop-opacity:1;" />
    </linearGradient>
    <linearGradient
       id="linearGradient15218">
      <stop
         id="stop15220"
         offset="0"
         style="stop-color:#eeeeef;stop-opacity:1;" />
      <stop
         id="stop2736"
         offset="0.59928656"
         style="stop-color:#d3d7cf;stop-opacity:1;" />
      <stop
         id="stop2738"
         offset="0.82758623"
         style="stop-color:#ffffff;stop-opacity:1;" />
      <stop
         id="stop15222"
         offset="1"
         style="stop-color:#d3d7cf;stop-opacity:1;" />
    </linearGradient>
    <pattern
       y="0"
       x="0"
       height="6"
       width="6"
       patternUnits="userSpaceOnUse"
       id="EMFhbasepattern" />
    <pattern
       y="0"
       x="0"
       height="6"
       width="6"
       patternUnits="userSpaceOnUse"
       id="EMFhbasepattern-5" />
    <pattern
       y="0"
       x="0"
       height="6"
       width="6"
       patternUnits="userSpaceOnUse"
       id="EMFhbasepattern-7" />
  </defs>
  <sodipodi:namedview
     id="base"
     pagecolor="#ffffff"
     bordercolor="#666666"
     borderopacity="1.0"
     inkscape:pageopacity="0.0"
     inkscape:pageshadow="2"
     inkscape:zoom="0.70710678"
     inkscape:cx="335.23477"
     inkscape:cy="433.32434"
     inkscape:document-units="px"
     inkscape:current-layer="layer1"
     showgrid="false"
     showguides="true"
     inkscape:guide-bbox="true"
     inkscape:window-width="1366"
     inkscape:window-height="721"
     inkscape:window-x="-4"
     inkscape:window-y="-4"
     inkscape:window-maximized="1">
    <sodipodi:guide
       position="560,730.00002"
       orientation="0,1"
       id="guide3338" />
    <sodipodi:guide
       position="560,330.00001"
       orientation="0,1"
       id="guide3340" />
    <sodipodi:guide
       position="190,475.00001"
       orientation="1,0"
       id="guide3344" />
    <sodipodi:guide
       position="590,451.00001"
       orientation="1,0"
       id="guide3346" />
    <inkscape:grid
       type="xygrid"
       id="grid3440" />
  </sodipodi:namedview>
  <metadata
     id="metadata7">
    <rdf:RDF>
      <cc:Work
         rdf:about="">
        <dc:format>image/svg+xml</dc:format>
        <dc:type
           rdf:resource="http://purl.org/dc/dcmitype/StillImage" />
        <dc:title>temporarily not available clock</dc:title>
        <dc:date>June 2015</dc:date>
        <dc:creator>
          <cc:Agent>
            <dc:title>Johannes Hechler</dc:title>
          </cc:Agent>
        </dc:creator>
        <dc:rights>
          <cc:Agent>
            <dc:title>Johannes Hechler</dc:title>
          </cc:Agent>
        </dc:rights>
        <dc:publisher>
          <cc:Agent>
            <dc:title>RRZE</dc:title>
          </cc:Agent>
        </dc:publisher>
        <dc:contributor>
          <cc:Agent>
            <dc:title>Ute Weber, Hendrik Eggers</dc:title>
          </cc:Agent>
        </dc:contributor>
      </cc:Work>
    </rdf:RDF>
  </metadata>
  <g
     inkscape:label="Ebene 1"
     inkscape:groupmode="layer"
     id="layer1">
    <rect
       style="opacity:1;fill:none;fill-opacity:1;stroke:none;stroke-width:23;stroke-linecap:butt;stroke-linejoin:round;stroke-miterlimit:4;stroke-dasharray:none;stroke-opacity:1"
       id="rect4160"
       width="400"
       height="400"
       x="189.82999"
       y="322.16425" />
    <path
       inkscape:connector-curvature="0"
       style="fill:#fbb516;fill-opacity:1;fill-rule:evenodd;stroke:none;stroke-width:16;stroke-miterlimit:4;stroke-dasharray:none;stroke-opacity:1"
       d="m 339.45898,346.82812 c -69.51509,0 -125.85351,56.06899 -125.85351,125.25391 0,69.18407 56.33842,125.25195 125.85351,125.25195 0.57673,0 1.14973,-0.0138 1.72461,-0.0215 5.88672,-65.74322 58.46467,-118.53278 124.1211,-124.8125 4.6e-4,-0.13967 0.006,-0.27819 0.006,-0.41797 0,-69.18492 -56.33614,-125.2539 -125.85157,-125.25391 z m 113.87891,178.62891 c -28.61307,8.40474 -50.97536,30.84795 -59.24609,59.49219 25.9541,-12.46452 46.94445,-33.53567 59.24609,-59.49219 z"
       id="path3359" />
    <path
       inkscape:connector-curvature="0"
       style="opacity:1;fill:#ffffff;fill-opacity:1;stroke:none;stroke-width:16;stroke-linecap:round;stroke-linejoin:round;stroke-miterlimit:4;stroke-dasharray:none;stroke-opacity:1"
       d="m 284.07812,447.06055 c -10.37873,0 -18.73437,8.35563 -18.73437,18.73437 l 0,12.01367 c 0,10.37874 8.35564,18.73438 18.73437,18.73438 l 81.125,0 c 14.29983,-14.22131 31.20504,-25.8199 49.9043,-34.00586 -1.53574,-8.81224 -9.17057,-15.47656 -18.43554,-15.47656 l -112.59376,0 z"
       id="rect4202" />
    <g
       id="g4168">
      <ellipse
         inkscape:export-ydpi="3.5900128"
         inkscape:export-xdpi="3.5900128"
         inkscape:export-filename="C:\Users\johannes\Desktop\g4199.png"
         ry="16.052956"
         rx="16.05707"
         cy="609.98523"
         cx="478.87225"
         id="path4190-9"
         style="opacity:1;fill:#ffffff;fill-opacity:1;stroke:#ffffff;stroke-width:50.00000381;stroke-linecap:round;stroke-linejoin:round;stroke-miterlimit:4;stroke-dasharray:none;stroke-opacity:1" />
      <rect
         inkscape:export-ydpi="3.5900128"
         inkscape:export-xdpi="3.5900128"
         inkscape:export-filename="C:\Users\johannes\Desktop\g4199.png"
         transform="matrix(-0.93972077,-0.34194279,-0.34209752,0.93966445,0,0)"
         rx="8.7432241"
         ry="9.9015579"
         y="409.26559"
         x="-667.27777"
         height="67.714424"
         width="17.486448"
         id="rect4194-8"
         style="opacity:1;fill:#ffffff;fill-opacity:1;stroke:#ffffff;stroke-width:50;stroke-linecap:round;stroke-linejoin:round;stroke-miterlimit:4;stroke-dasharray:none;stroke-opacity:1" />
      <ellipse
         inkscape:export-ydpi="3.5900128"
         inkscape:export-xdpi="3.5900128"
         inkscape:export-filename="C:\Users\johannes\Desktop\g4199.png"
         ry="112.3707"
         rx="112.3995"
         cy="609.31989"
         cx="477.58893"
         id="path4188"
         style="opacity:1;fill:#4e505d;fill-opacity:1;stroke:none;stroke-width:16;stroke-linecap:round;stroke-linejoin:round;stroke-miterlimit:4;stroke-dasharray:none;stroke-opacity:1" />
      <ellipse
         inkscape:export-ydpi="3.5900128"
         inkscape:export-xdpi="3.5900128"
         inkscape:export-filename="C:\Users\johannes\Desktop\g4199.png"
         ry="23.528934"
         rx="23.534964"
         cy="609.71326"
         cx="479.4455"
         id="path4190"
         style="opacity:1;fill:#ffffff;fill-opacity:1;stroke:none;stroke-width:16;stroke-linecap:round;stroke-linejoin:round;stroke-miterlimit:4;stroke-dasharray:none;stroke-opacity:1" />
      <rect
         inkscape:export-ydpi="3.5900128"
         inkscape:export-xdpi="3.5900128"
         inkscape:export-filename="C:\Users\johannes\Desktop\g4199.png"
         inkscape:transform-center-y="29.847469"
         inkscape:transform-center-x="1.4596236"
         transform="matrix(-0.99990406,-0.01385166,-0.0139958,0.99990205,0,0)"
         rx="11.626015"
         ry="10.951156"
         y="603.24249"
         x="-500.60458"
         height="74.892372"
         width="23.252029"
         id="rect4194"
         style="opacity:1;fill:#ffffff;fill-opacity:1;stroke:none;stroke-width:16;stroke-linecap:round;stroke-linejoin:round;stroke-miterlimit:4;stroke-dasharray:none;stroke-opacity:1" />
      <path
         inkscape:export-ydpi="3.5900128"
         inkscape:export-xdpi="3.5900128"
         inkscape:export-filename="C:\Users\johannes\Desktop\g4199.png"
         inkscape:transform-center-y="-0.69882138"
         inkscape:transform-center-x="41.027969"
         inkscape:connector-curvature="0"
         id="rect4192-9"
         d="m 377.50337,603.76471 c -2.29396,1.68226 -3.68572,3.99874 -3.64021,6.55406 0.091,5.11064 5.89809,9.18814 13.02064,9.14317 l 76.80556,-0.48529 c 7.12254,-0.0449 12.78292,-4.19358 12.69184,-9.30428 -0.091,-5.11065 -5.89587,-9.18976 -13.01841,-9.14481 l -76.80967,0.48505 c -3.56128,0.0225 -6.75568,1.06998 -9.0498,2.75205 z"
         style="opacity:1;fill:#ffffff;fill-opacity:1;stroke:none;stroke-width:50;stroke-linecap:round;stroke-linejoin:round;stroke-miterlimit:4;stroke-dasharray:none;stroke-opacity:1" />
    </g>
  </g>
</svg>

<?xml version="1.0" encoding="UTF-8" standalone="no"?>
<!-- Created with Inkscape (http://www.inkscape.org/) -->

<svg
   xmlns:dc="http://purl.org/dc/elements/1.1/"
   xmlns:cc="http://creativecommons.org/ns#"
   xmlns:rdf="http://www.w3.org/1999/02/22-rdf-syntax-ns#"
   xmlns:svg="http://www.w3.org/2000/svg"
   xmlns="http://www.w3.org/2000/svg"
   xmlns:sodipodi="http://sodipodi.sourceforge.net/DTD/sodipodi-0.dtd"
   xmlns:inkscape="http://www.inkscape.org/namespaces/inkscape"
   width="210mm"
   height="297mm"
   viewBox="0 0 744.09448819 1052.3622047"
   id="svg2"
   version="1.1"
   inkscape:version="0.91 r13725"
   inkscape:export-xdpi="3.5985749"
   inkscape:export-ydpi="3.5985749"
   sodipodi:docname="temporarily-not-available-clock.svg"
   inkscape:export-filename="C:\Users\johannes\Documents\Arbeit\RRZE\github3\bicons\16x16\status\temporarily-not-available-clock.png">
  <defs
     id="defs4">
    <linearGradient
       id="linearGradient2224">
      <stop
         id="stop2226"
         offset="0"
         style="stop-color:#7c7c7c;stop-opacity:1;" />
      <stop
         id="stop2228"
         offset="1"
         style="stop-color:#b8b8b8;stop-opacity:1;" />
    </linearGradient>
    <linearGradient
       id="linearGradient15218">
      <stop
         id="stop15220"
         offset="0"
         style="stop-color:#eeeeef;stop-opacity:1;" />
      <stop
         id="stop2736"
         offset="0.59928656"
         style="stop-color:#d3d7cf;stop-opacity:1;" />
      <stop
         id="stop2738"
         offset="0.82758623"
         style="stop-color:#ffffff;stop-opacity:1;" />
      <stop
         id="stop15222"
         offset="1"
         style="stop-color:#d3d7cf;stop-opacity:1;" />
    </linearGradient>
    <pattern
       y="0"
       x="0"
       height="6"
       width="6"
       patternUnits="userSpaceOnUse"
       id="EMFhbasepattern" />
    <pattern
       y="0"
       x="0"
       height="6"
       width="6"
       patternUnits="userSpaceOnUse"
       id="EMFhbasepattern-5" />
    <pattern
       y="0"
       x="0"
       height="6"
       width="6"
       patternUnits="userSpaceOnUse"
       id="EMFhbasepattern-7" />
  </defs>
  <sodipodi:namedview
     id="base"
     pagecolor="#ffffff"
     bordercolor="#666666"
     borderopacity="1.0"
     inkscape:pageopacity="0.0"
     inkscape:pageshadow="2"
     inkscape:zoom="0.35355339"
     inkscape:cx="-240.48255"
     inkscape:cy="453.68649"
     inkscape:document-units="px"
     inkscape:current-layer="layer1"
     showgrid="false"
     showguides="true"
     inkscape:guide-bbox="true"
     inkscape:window-width="1366"
     inkscape:window-height="721"
     inkscape:window-x="-4"
     inkscape:window-y="-4"
     inkscape:window-maximized="1">
    <sodipodi:guide
       position="560,730.00002"
       orientation="0,1"
       id="guide3338" />
    <sodipodi:guide
       position="560,330.00001"
       orientation="0,1"
       id="guide3340" />
    <sodipodi:guide
       position="190,475.00001"
       orientation="1,0"
       id="guide3344" />
    <sodipodi:guide
       position="590,451.00001"
       orientation="1,0"
       id="guide3346" />
    <inkscape:grid
       type="xygrid"
       id="grid3440" />
  </sodipodi:namedview>
  <metadata
     id="metadata7">
    <rdf:RDF>
      <cc:Work
         rdf:about="">
        <dc:format>image/svg+xml</dc:format>
        <dc:type
           rdf:resource="http://purl.org/dc/dcmitype/StillImage" />
        <dc:title>temporarily not available clock</dc:title>
        <dc:date>June 2015</dc:date>
        <dc:creator>
          <cc:Agent>
            <dc:title>Johannes Hechler</dc:title>
          </cc:Agent>
        </dc:creator>
        <dc:rights>
          <cc:Agent>
            <dc:title>Johannes Hechler</dc:title>
          </cc:Agent>
        </dc:rights>
        <dc:publisher>
          <cc:Agent>
            <dc:title>RRZE</dc:title>
          </cc:Agent>
        </dc:publisher>
        <dc:contributor>
          <cc:Agent>
            <dc:title>Ute Weber, Hendrik Eggers</dc:title>
          </cc:Agent>
        </dc:contributor>
      </cc:Work>
    </rdf:RDF>
  </metadata>
  <g
     inkscape:label="Ebene 1"
     inkscape:groupmode="layer"
     id="layer1">
    <g
       id="g4182">
      <rect
         y="322.16425"
         x="189.82999"
         height="400"
         width="400"
         id="rect4160"
         style="opacity:1;fill:none;fill-opacity:1;stroke:none;stroke-width:23;stroke-linecap:butt;stroke-linejoin:round;stroke-miterlimit:4;stroke-dasharray:none;stroke-opacity:1" />
      <path
         id="path3359"
         d="M 339.45898 346.82812 C 269.94389 346.82812 213.60547 402.89711 213.60547 472.08203 C 213.60547 541.2661 269.94389 597.33398 339.45898 597.33398 C 340.03571 597.33398 340.60871 597.32019 341.18359 597.3125 C 347.07031 531.56928 399.64826 478.77972 465.30469 472.5 C 465.30515 472.36033 465.31055 472.22181 465.31055 472.08203 C 465.31055 402.89711 408.97441 346.82813 339.45898 346.82812 z M 453.33789 525.45703 C 424.72482 533.86177 402.36253 556.30498 394.0918 584.94922 C 420.0459 572.4847 441.03625 551.41355 453.33789 525.45703 z "
         style="fill:#fbb516;fill-opacity:1;fill-rule:evenodd;stroke:none;stroke-width:16;stroke-miterlimit:4;stroke-dasharray:none;stroke-opacity:1" />
      <path
         id="rect4202"
         d="M 284.07812 447.06055 C 273.69939 447.06055 265.34375 455.41618 265.34375 465.79492 L 265.34375 477.80859 C 265.34375 488.18733 273.69939 496.54297 284.07812 496.54297 L 365.20312 496.54297 C 379.50295 482.32166 396.40816 470.72307 415.10742 462.53711 C 413.57168 453.72487 405.93685 447.06055 396.67188 447.06055 L 284.07812 447.06055 z "
         style="opacity:1;fill:#ffffff;fill-opacity:1;stroke:none;stroke-width:16;stroke-linecap:round;stroke-linejoin:round;stroke-miterlimit:4;stroke-dasharray:none;stroke-opacity:1" />
      <ellipse
         inkscape:export-ydpi="3.5900128"
         inkscape:export-xdpi="3.5900128"
         inkscape:export-filename="C:\Users\johannes\Desktop\g4199.png"
         ry="16.052956"
         rx="16.05707"
         cy="609.98523"
         cx="478.87225"
         id="path4190-9"
         style="opacity:1;fill:#ffffff;fill-opacity:1;stroke:#ffffff;stroke-width:50.00000381;stroke-linecap:round;stroke-linejoin:round;stroke-miterlimit:4;stroke-dasharray:none;stroke-opacity:1" />
      <rect
         inkscape:export-ydpi="3.5900128"
         inkscape:export-xdpi="3.5900128"
         inkscape:export-filename="C:\Users\johannes\Desktop\g4199.png"
         transform="matrix(-0.93972077,-0.34194279,-0.34209752,0.93966445,0,0)"
         rx="8.7432241"
         ry="9.9015579"
         y="409.26559"
         x="-667.27777"
         height="67.714424"
         width="17.486448"
         id="rect4194-8"
         style="opacity:1;fill:#ffffff;fill-opacity:1;stroke:#ffffff;stroke-width:50;stroke-linecap:round;stroke-linejoin:round;stroke-miterlimit:4;stroke-dasharray:none;stroke-opacity:1" />
      <ellipse
         inkscape:export-ydpi="3.5900128"
         inkscape:export-xdpi="3.5900128"
         inkscape:export-filename="C:\Users\johannes\Desktop\g4199.png"
         ry="112.3707"
         rx="112.3995"
         cy="609.31989"
         cx="477.58893"
         id="path4188"
         style="opacity:1;fill:#4e505d;fill-opacity:1;stroke:none;stroke-width:16;stroke-linecap:round;stroke-linejoin:round;stroke-miterlimit:4;stroke-dasharray:none;stroke-opacity:1" />
      <ellipse
         inkscape:export-ydpi="3.5900128"
         inkscape:export-xdpi="3.5900128"
         inkscape:export-filename="C:\Users\johannes\Desktop\g4199.png"
         ry="23.528934"
         rx="23.534964"
         cy="609.71326"
         cx="479.4455"
         id="path4190"
         style="opacity:1;fill:#ffffff;fill-opacity:1;stroke:none;stroke-width:16;stroke-linecap:round;stroke-linejoin:round;stroke-miterlimit:4;stroke-dasharray:none;stroke-opacity:1" />
      <rect
         inkscape:export-ydpi="3.5900128"
         inkscape:export-xdpi="3.5900128"
         inkscape:export-filename="C:\Users\johannes\Desktop\g4199.png"
         inkscape:transform-center-y="29.847469"
         inkscape:transform-center-x="1.4596236"
         transform="matrix(-0.99990406,-0.01385166,-0.0139958,0.99990205,0,0)"
         rx="11.626015"
         ry="10.951156"
         y="603.24249"
         x="-500.60458"
         height="74.892372"
         width="23.252029"
         id="rect4194"
         style="opacity:1;fill:#ffffff;fill-opacity:1;stroke:none;stroke-width:16;stroke-linecap:round;stroke-linejoin:round;stroke-miterlimit:4;stroke-dasharray:none;stroke-opacity:1" />
      <path
         inkscape:export-ydpi="3.5900128"
         inkscape:export-xdpi="3.5900128"
         inkscape:export-filename="C:\Users\johannes\Desktop\g4199.png"
         inkscape:transform-center-y="-0.69882138"
         inkscape:transform-center-x="41.027969"
         inkscape:connector-curvature="0"
         id="rect4192-9"
         d="m 377.50337,603.76471 c -2.29396,1.68226 -3.68572,3.99874 -3.64021,6.55406 0.091,5.11064 5.89809,9.18814 13.02064,9.14317 l 76.80556,-0.48529 c 7.12254,-0.0449 12.78292,-4.19358 12.69184,-9.30428 -0.091,-5.11065 -5.89587,-9.18976 -13.01841,-9.14481 l -76.80967,0.48505 c -3.56128,0.0225 -6.75568,1.06998 -9.0498,2.75205 z"
         style="opacity:1;fill:#ffffff;fill-opacity:1;stroke:none;stroke-width:50;stroke-linecap:round;stroke-linejoin:round;stroke-miterlimit:4;stroke-dasharray:none;stroke-opacity:1" />
    </g>
  </g>
</svg>
